src/pos-icons/format-clear.svg

<svg height="24" viewBox="0 0 24 24" width="24" xmlns="http://www.w3.org/2000/svg"><path d="m6 5v.18l2.82 2.82h2.4l-.72 1.68 2.1 2.1 1.61-3.78h5.79v-3zm-2.73 0-1.27 1.27 6.97 6.97-2.47 5.76h3l1.57-3.66 5.66 5.66 1.27-1.27-14.45-14.46z"/></svg>

<?xml version="1.0" encoding="UTF-8"?><!DOCTYPE svg PUBLIC "-//W3C//DTD SVG 1.1//EN" "http://www.w3.org/Graphics/SVG/1.1/DTD/svg11.dtd"><svg xmlns="http://www.w3.org/2000/svg" xmlns:xlink="http://www.w3.org/1999/xlink" version="1.1" id="mdi-format-clear" width="24" height="24" viewBox="0 0 24 24"><path d="M6,5V5.18L8.82,8H11.22L10.5,9.68L12.6,11.78L14.21,8H20V5H6M3.27,5L2,6.27L8.97,13.24L6.5,19H9.5L11.07,15.34L16.73,21L18,19.73L3.55,5.27L3.27,5Z" /></svg>
